X:1
T:Title
%%score { 1 | ( 2 3 ) }
L:1/8
Q:1/4=104
M:4/4
K:G
V:1 treble nm="Grand Piano"
V:2 treble 
V:3 treble 
V:1
 B2 A>G D2 G2 | G2 F2 [Fc]4 | [Fc]2 B>A E2 F2 | E2 D2 B4 | B2 A>G D2 Bd | [Ed]3 [EA] [Ec]4 | %6
w: John~R.~Sweney * * * *||||||
 F2 F>G [FA]2 [Fc]2 | [DGB]2 [CFA]2 [B,G]4 | B d3 G2 B2 | [EA] [Ec]3 E4 | F2 F>E D2 c2 | %11
w: |||||
 c2 B>_B =B4 | B d3 G2 Bd | [Ed] [EA]3 [Ec]4 | F2 F>G [FA]2 [Fc]2 | [DGB]2 [CFA]2 [B,DG]4 |] %16
w: |||||
V:2
 [G,DG]2 [G,CD]>[G,B,D] [G,B,]2 [G,B,D]2 | [D,B,D]2 [D,A,D]2 [D,A,]4 | %2
 [D,A,]2 [D,G,D]>[D,F,D] [D,G,C]2 [D,A,C]2 | [G,B,]2 [G,B,]2[K:treble] [G,D]4 | z4 z2 .D2 | %5
 [C,G,]3 [C,A,] [A,,A,]4 | [D,A,D]2 [D,A,D]>[D,B,] [D,C]2 [D,A,]2 | D,2 D,2 G,,4 | %8
 [G,DG] [G,B,G]3[K:bass] [G,B,D]2 [G,D]2 | [C,G,] [C,G,]3 [C,G,C]4 | %10
 [D,A,]2 [D,A,D]>[D,G,D] [D,F,]2 [D,A,D]2 | [G,A,D]2 [G,D]>[G,^C] [G,D]4 | z4 z2 .D2 | %13
 [C,G,] [C,A,]3 [A,,A,]4 | [D,A,D]2 [D,A,D]>[D,B,] [D,C]2 [D,A,]2 | D,2 D,2 G,,4 |] %16
V:3
 x8 | x8 | x8 | x4[K:treble] x4 | [G,DG]2 [G,CD]>[G,B,D] [G,B,]2 G,-[G,=F] | x8 | x8 | x8 | %8
 x4[K:bass] x4 | x8 | x8 | x8 | [G,DG] [G,B,G]3 [G,B,D]2 G,-[G,=F] | x8 | x8 | x8 |] %16

